svg/user/user_visible_line.svg

<?xml version="1.0" encoding="UTF-8"?>
<svg width="24px" height="24px" viewBox="0 0 24 24" version="1.1" xmlns="http://www.w3.org/2000/svg" xmlns:xlink="http://www.w3.org/1999/xlink">
    <title>user_visible_line</title>
    <g id="Icon" stroke="none" stroke-width="1" fill="none" fill-rule="evenodd">
        <g id="User" transform="translate(-432.000000, -96.000000)">
            <g id="user_visible_line" transform="translate(432.000000, 96.000000)">
                <path d="M24,0 L24,24 L0,24 L0,0 L24,0 Z M12.5935,23.2578 L12.5819,23.2595 L12.5109,23.295 L12.4919,23.2987 L12.4767,23.295 L12.4057,23.2595 C12.3958,23.2564 12.387,23.259 12.3821,23.2649 L12.378,23.2758 L12.3609,23.7031 L12.3659,23.7235 L12.3769,23.7357 L12.4805,23.8097 L12.4953,23.8136 L12.5071,23.8097 L12.6107,23.7357 L12.6233,23.7197 L12.6267,23.7031 L12.6096,23.2758 C12.6076,23.2657 12.601,23.2593 12.5935,23.2578 Z M12.8584,23.1453 L12.8445,23.1473 L12.6598,23.2397 L12.6499,23.2499 L12.6472,23.2611 L12.6651,23.6906 L12.6699,23.7034 L12.6784,23.7105 L12.8793,23.8032 C12.8914,23.8069 12.9022,23.803 12.9078,23.7952 L12.9118,23.7812 L12.8777,23.1665 C12.8753,23.1546 12.8674,23.147 12.8584,23.1453 Z M12.143,23.1473 C12.1332,23.1424 12.1222,23.1453 12.1156,23.1526 L12.1099,23.1665 L12.0758,23.7812 C12.0751,23.7927 12.0828,23.8019 12.0926,23.8046 L12.1083,23.8032 L12.3092,23.7105 L12.3186,23.7024 L12.3225,23.6906 L12.3404,23.2611 L12.3372,23.2485 L12.3278,23.2397 L12.143,23.1473 Z" id="MingCute" fill-rule="nonzero"></path>
                <path d="M11,2 C8.23858,2 6,4.23858 6,7 C6,9.76142 8.23858,12 11,12 C13.7614,12 16,9.76142 16,7 C16,4.23858 13.7614,2 11,2 Z M8,7 C8,5.34315 9.34315,4 11,4 C12.6569,4 14,5.34315 14,7 C14,8.65685 12.6569,10 11,10 C9.34315,10 8,8.65685 8,7 Z M10.3367,15.0212 C10.8878,14.9861 11.3062,14.5108 11.2711,13.9597 C11.236,13.4085 10.7608,12.9901 10.2096,13.0252 C8.00082,13.1658 6.01489,13.8829 4.55889,14.8382 C3.83115,15.3157 3.21061,15.8692 2.76264,16.4673 C2.32067,17.0573 2,17.7557 2,18.5001 C2,20.0345 3.27796,20.8459 4.4954,21.2632 C5.7745,21.7016 7.48466,21.901 9.32712,21.9704 C9.87902,21.9911 10.3433,21.5606 10.364,21.0087 C10.3848,20.4568 9.95426,19.9925 9.40237,19.9718 C7.61083,19.9043 6.13861,19.7121 5.14384,19.3712 C4.21169588,19.0517 4.0339791,18.7371827 4.00506504,18.5622909 L4,18.5001 L4,18.5001 C4,18.3316 4.07876,18.0463 4.36338,17.6663 C4.64199,17.2943 5.07517,16.8915 5.65601,16.5104 C6.81717,15.7486 8.46781,15.1402 10.3367,15.0212 Z M17,13.8889 C18.406,13.8889 19.632,14.5207 20.4902,15.2781 C20.9229,15.66 21.2862,16.0942 21.5474,16.5377 C21.7992,16.9654 22,17.4772 22,18 C22,18.5228 21.7992,19.0346 21.5474,19.4623 C21.2862,19.9058 20.9229,20.34 20.4902,20.7219 C19.632,21.4793 18.406,22.1111 17,22.1111 C15.594,22.1111 14.368,21.4793 13.5098,20.7219 C13.0771,20.34 12.7138,19.9058 12.4526,19.4623 C12.2008,19.0346 12,18.5228 12,18 C12,17.4772 12.2008,16.9654 12.4526,16.5377 C12.7138,16.0942 13.0771,15.66 13.5098,15.2781 C14.368,14.5207 15.594,13.8889 17,13.8889 Z M17,15.8889 C16.1968,15.8889 15.4229,16.2572 14.8333,16.7775 C14.5422,17.0345 14.3197,17.3086 14.176,17.5526 C14.0885714,17.7010571 14.0435918,17.8152612 14.0210962,17.8919843 L14.0017201,17.9785545 L14.0017201,17.9785545 L14.0017201,18.0214455 L14.0017201,18.0214455 L14.0210962,18.1080157 C14.0435918,18.1847388 14.0885714,18.2989429 14.176,18.4474 C14.3197,18.6914 14.5422,18.9655 14.8333,19.2225 C15.4229,19.7428 16.1968,20.1111 17,20.1111 C17.8032,20.1111 18.5771,19.7428 19.1667,19.2225 C19.4578,18.9655 19.6803,18.6914 19.824,18.4474 C19.9114286,18.2989429 19.9564082,18.1847388 19.9789038,18.1080157 L19.9982799,18.0214455 C19.9995306,18.0118367 20,18.0046714 20,18 L19.9918717,17.9424484 C19.9762449,17.8702224 19.9332857,17.7381714 19.824,17.5526 C19.6803,17.3086 19.4578,17.0345 19.1667,16.7775 C18.5771,16.2572 17.8032,15.8889 17,15.8889 Z M17.087,17.0037 C17.0316,17.1009 17,17.2134 17,17.3333 C17,17.7015 17.2985,18 17.6667,18 C17.7866,18 17.8991,17.9684 17.9963,17.913 L18,18 L18,18 C18,18.5523 17.5523,19 17,19 C16.4477,19 16,18.5523 16,18 C16,17.4477 16.4477,17 17,17 C17.0293,17 17.0584,17.0013 17.087,17.0037 Z" id="形状" fill="#09244B"></path>
            </g>
        </g>
    </g>
</svg>

<svg xmlns="http://www.w3.org/2000/svg" width="24" height="24"><g fill="none" fill-rule="evenodd"><path d="M24 0v24H0V0h24ZM12.594 23.258l-.012.002-.071.035-.02.004-.014-.004-.071-.036c-.01-.003-.019 0-.024.006l-.004.01-.017.428.005.02.01.013.104.074.015.004.012-.004.104-.074.012-.016.004-.017-.017-.427c-.002-.01-.009-.017-.016-.018Zm.264-.113-.014.002-.184.093-.01.01-.003.011.018.43.005.012.008.008.201.092c.012.004.023 0 .029-.008l.004-.014-.034-.614c-.003-.012-.01-.02-.02-.022Zm-.715.002a.023.023 0 0 0-.027.006l-.006.014-.034.614c0 .012.007.02.017.024l.015-.002.201-.093.01-.008.003-.011.018-.43-.003-.012-.01-.01-.184-.092Z"/><path fill="#09244B" d="M11 2a5 5 0 1 0 0 10 5 5 0 0 0 0-10ZM8 7a3 3 0 1 1 6 0 3 3 0 0 1-6 0Zm2.337 8.021a1 1 0 0 0-.127-1.996c-2.21.14-4.195.858-5.651 1.813-.728.478-1.348 1.031-1.796 1.63C2.32 17.057 2 17.755 2 18.5c0 1.535 1.278 2.346 2.495 2.763 1.28.439 2.99.638 4.832.707a1 1 0 0 0 .075-1.998c-1.791-.068-3.263-.26-4.258-.6-.932-.32-1.11-.635-1.139-.81L4 18.5c0-.168.079-.454.363-.834.279-.372.712-.774 1.293-1.156 1.161-.761 2.812-1.37 4.68-1.489ZM17 13.89c1.406 0 2.632.632 3.49 1.39a5.3 5.3 0 0 1 1.057 1.259c.252.427.453.94.453 1.462 0 .523-.2 1.035-.453 1.462a5.3 5.3 0 0 1-1.057 1.26c-.858.757-2.084 1.39-3.49 1.39-1.406 0-2.632-.633-3.49-1.39a5.3 5.3 0 0 1-1.057-1.26C12.2 19.035 12 18.522 12 18c0-.523.2-1.035.453-1.462a5.3 5.3 0 0 1 1.057-1.26c.858-.757 2.084-1.39 3.49-1.39Zm0 2c-.803 0-1.577.368-2.167.889a3.31 3.31 0 0 0-.657.775 1.536 1.536 0 0 0-.155.339l-.02.087v.042l.02.087c.023.077.068.19.155.34.144.243.366.517.657.774.59.52 1.364.89 2.167.89.803 0 1.577-.37 2.167-.89a3.31 3.31 0 0 0 .657-.775c.087-.148.132-.262.155-.339l.02-.087A.176.176 0 0 0 20 18l-.008-.058a1.376 1.376 0 0 0-.168-.39 3.31 3.31 0 0 0-.657-.774c-.59-.52-1.364-.89-2.167-.89Zm.087 1.115a.667.667 0 0 0 .91.91l.003.086a1 1 0 1 1-.913-.996Z"/></g></svg>
